X:21
T:Sheebeg and Sheemore
Z: id:dc-ocarolan-14
M:3/4
L:1/8
K:D Major
de|f2 fe d2|d3 e d2|B4 A2|F4 A2|BA Bc d2|e4 de|f4 e2|d4 f2|!
B4 e2|A4 d2|F4 E2|D4 f2|B4 e2|A4 dc|d6|d4:|!
de|f2 fe d2|ed ef a2|b4 a2|f4 ed|e2 e2 a2|f3 e d2|d4 B2|A4 BA|!
F4 E2|D4 f2|B4 e2|A4 fa|ba gf ed|e4 dc|d6|d4:|!

